X:1
T:60 Lessons for 2 Guitars, Op.168 - Joseph Küffner (1776 - 1856)
T:Leçon No.55
T:60 Lessons for 2 Guitars, Op.168 "à l'usage des commençants"
T:Joseph Küffner (1776 - 1856)
%%score { ( 1 2 ) ( 3 4 ) }
L:1/8
Q:1/4=72
M:2/4
K:F
V:1 treble-8 nm="Classical Guitar"
V:2 treble-8 
V:3 treble-8 nm="Guitare classique"
V:4 treble-8 
V:1
"^Andantino""_" cf (g/f/).e/.d/ | c2 A2 | Bc Ac | GG!<(! GA/B/!<)! |"_cresc." c[cf] [ce][Gd] | %5
"_" g3 [Adf] | [ce][ce] d/f/e/d/ | c2 z2 ::"_" [cg][cg] (f/e/).d/.c/ | %9
 !arpeggio![FAc]2 !arpeggio![Acf]2 | [dg]b ag | [Acf]2 [Gce]2 | cf (g/f/).e/.d/ | c^c d[dg] | %14
 [Acf]f (f/e/).d/.e/ | f2 z2 :| %16
V:2
 [FA]2 z2 | A2 F2 | E2 F2 | CC C2 | AA GF | [EGc]3 A | GG [G,G]2 | x4 :: [EB][EB] z2 | x4 | %10
 [Bd] z z2 | x4 | [FA]2 z2 | AA BB | C z z2 | x4 :| %16
V:3
"_" z/ A/F/A/ z/ B/F/B/ | z/ A/F/A/ z/ A/F/A/ | z/ G/E/G/ z/ A/F/A/ | z/ G/E/G/ z/ G/E/C/ | %4
 A,/F/F,/F/ z/ [EGc]/z/[FG=B]/ |"_" z/ E/G/c/ z/ F/A/d/ | z/ E/G/c/ z/ D/G/=B/ | z/ E/G/c/ C2 :: %8
"_" z/ E/B/c/ z/ E/B/c/ | z/ F/A/c/ z/ F/A/c/ | z/ B/d/g/ z/ B/d/g/ | z/ A/c/f/ z/ G/c/e/ | %12
 z/ c/A/c/ z/ d/B/d/ | A,/A/A,/A/ B,/B/B,/B/ | z/ F/A/c/ z/ E/B/c/ | z/ F/A/c/ F,2 :| %16
V:4
 F,2 F,2 | F,2 F,2 | C2 C2 | C2 B,2 | A,F, G,G, | E,2 F,2 | G,2 G,2 | C2 x2 :: C2 C2 | F,2 F,2 | %10
 B,2 G,2 | C2 C2 | F,2 B,2 | x4 | C2 C2 | F,2 x2 :| %16

